X: 1
T:Bayrisch Polka - schottisch/schottische/scottish
C:Rudolf Heidinger
S:Oberoesterreichisches Volksliedwerk OVLA MII L9
A:Pstlingberg
Z:abc transcription Simon Wascher
N:please mail errors to: simon.wascher@chello.at
M:2/4
L:1/16
K:G
d2|B2e2 d^cd2|c2e2 d^cd2|d2e2 ^fga2|bage d4|
B2e2 d^cd2|c2e2 d^cd2|d2e2 fgab|g2g2g2:|
|:ed|c2B2 A3d|B2B2 BAG2|^FAA2 Acc2|GBB2 Bdd2|
c2B2 A3d|B2B2 BAG2|FAA2 Add2|G2G2G2"Fine":|
K:C
|:"Trio"gf|e2eg d2df|e2ce g2^fg|a2af a2gf|e2eG c2gf|
e2eg d2df|e2ce g2^fg|a2af g2gB|c2c2c2:|
|:"Trio"ef|g2g2g2f2|e4z2g2|gff2 z2a2|g4c'4|
g2g2 g2f2|e4z2g2|gff2 z2gf|e2e2e2:|
